X: 14498
T: Gan Ainm
R: strathspey
M: 4/4
K: Adorian
E>A A/A/A B/c/d e<a|E<AA>c B>AB2|E>A A/A/A B/c/d e>d|e/f/g d>g B>AG<B:|
e<aa>f g>ef>d|e<aa>f g>ef2|e<aa>f g>ef>d|e/f/g d>g B>AG<B:|

